svg/u26a7.svg

<svg viewBox="0 0 128 128" xmlns="http://www.w3.org/2000/svg">
  <g>
    <path d="M118.14,5.98c-5.31,0-20,0-25.43,0c-1.66,0-2.93,1.27-2.93,2.93v5.86c0,1.66,1.27,2.93,2.93,2.93 h6.59c0.68,0,0.98,0.78,0.49,1.27L81.54,37.31c-4.79-3.09-10.49-4.9-16.61-4.9c-6.65,0-12.79,2.13-17.81,5.72l-3.95-4.12l6.08-6.08 c1.17-1.17,1.65-3.03-0.09-5.1l-14.19,2.97l-6.75-6.75c-0.49-0.49-0.1-1.27,0.49-1.27h4.59c1.66,0,2.93-1.27,2.93-2.93V9 L6.93,17.79v14.65c0,1.66,1.27,2.93,2.93,2.93h5.86c1.66,0,2.93-1.27,2.93-2.93v-4.59c0-0.68,0.78-0.98,1.27-0.49l6.07,6.07 c0,0-6.36,5.61-6.63,5.99c-1.61,2.22-1.25,4.09-0.08,5.17l4.57,4.57c1.17,1.17,3.03,1.17,4.1,0c0.35-0.35,6.8-6.8,6.93-6.93 l4.28,4.28c-3.07,4.78-4.87,10.45-4.87,16.56c0,14.92,10.67,27.35,24.8,30.08l-0.01,0.03v9.37h-8.79c-1.66,0-2.93,1.27-2.93,2.93 v4.86c0,1.66,1.27,2.93,2.93,2.93h8.79v7.83c0,1.66,1.27,2.93,2.93,2.93h5.86c1.66,0,2.93-1.27,2.93-2.93v-7.83h8.79 c1.66,0,2.93-1.27,2.93-2.93v-4.86c0-1.66-1.27-2.93-2.93-2.93h-8.79v-9.37l-0.01-0.03c14.13-2.73,24.8-15.16,24.8-30.08 c0-6.63-2.11-12.77-5.7-17.78l18.21-18.21c0.49-0.49,1.27-0.1,1.27,0.49v6.78c0,1.66,1.27,2.93,2.93,2.93h5.86 c1.66,0,2.93-1.27,2.93-2.93V17.69V8.91C121.07,7.34,119.8,5.98,118.14,5.98z M65,81.57c-0.13,0-0.26-0.01-0.39-0.01 c-0.34-0.01-0.68-0.03-1.02-0.05c-0.26-0.02-0.51-0.04-0.77-0.07l0,0.01c-9.23-1.05-16.41-8.87-16.41-18.39 c0-10.23,8.29-18.51,18.51-18.51c10.23,0,18.51,8.29,18.51,18.51C83.44,73.26,75.19,81.53,65,81.57z" fill="#F57C00"/>
    <g>
      <path d="M118.14,3.98c-5.31,0-20,0-25.43,0c-1.66,0-2.93,1.27-2.93,2.93v5.86c0,1.66,1.27,2.93,2.93,2.93 h6.59c0.68,0,0.98,0.78,0.49,1.27L81.54,35.31c-4.79-3.09-10.49-4.9-16.61-4.9c-6.65,0-12.79,2.13-17.81,5.72l-3.95-4.12 l5.57-5.57c1.17-1.17,1.17-3.03,0-4.1l-4.1-4.1c-1.17-1.17-3.03-1.17-4.1,0l-5.57,5.57l-6.75-6.75c-0.49-0.49-0.1-1.27,0.49-1.27 h4.59c1.66,0,2.93-1.27,2.93-2.93V7c0-1.66-1.27-2.93-2.93-2.93c-5.49,0-18.07,0-23.43,0C8.2,4.07,6.93,5.34,6.93,7v8.79v14.65 c0,1.66,1.27,2.93,2.93,2.93h5.86c1.66,0,2.93-1.27,2.93-2.93v-4.59c0-0.68,0.78-0.98,1.27-0.49l6.66,6.66 c-0.12,0.11-6.51,6.6-6.83,6.93c-1.17,1.17-1.17,3.03,0,4.1l4.1,4.1c1.17,1.17,3.03,1.17,4.1,0c0.35-0.35,6.8-6.8,6.93-6.93 l4.28,4.28c-3.07,4.78-4.87,10.45-4.87,16.56c0,14.92,10.67,27.35,24.8,30.08l-0.01,0.03v9.37h-8.79c-1.66,0-2.93,1.27-2.93,2.93 v4.86c0,1.66,1.27,2.93,2.93,2.93h8.79v7.83c0,1.66,1.27,2.93,2.93,2.93h5.86c1.66,0,2.93-1.27,2.93-2.93v-7.83h8.79 c1.66,0,2.93-1.27,2.93-2.93v-4.86c0-1.66-1.27-2.93-2.93-2.93h-8.79v-9.37l-0.01-0.03c14.13-2.73,24.8-15.16,24.8-30.08 c0-6.63-2.11-12.77-5.7-17.78l18.21-18.21c0.49-0.49,1.27-0.1,1.27,0.49v6.78c0,1.66,1.27,2.93,2.93,2.93h5.86 c1.66,0,2.93-1.27,2.93-2.93V15.69V6.91C121.07,5.34,119.8,3.98,118.14,3.98z M65,79.57c-0.13,0-0.26-0.01-0.39-0.01 c-0.34-0.01-0.68-0.03-1.02-0.05c-0.26-0.02-0.51-0.04-0.77-0.07l0,0.01c-9.23-1.05-16.41-8.87-16.41-18.39 c0-10.23,8.29-18.51,18.51-18.51c10.23,0,18.51,8.29,18.51,18.51C83.44,71.26,75.19,79.53,65,79.57z" fill="#FFA726"/>
      <path d="M41.68,45.64c3.37-5.6,8.95-9.79,14.19-10.99 c3.54-0.81,5.37-0.82,5.82,0.92c0.45,1.74-3.72,2.85-4.57,3.21c-5.61,2.26-8.93,5.09-11.53,9.53c-1.13,1.94-3.2,8.59-5.63,7.49 C38.45,55.31,38.47,51.35,41.68,45.64z" opacity="0.3" fill="#FFFFFF" enable-background="new "/>
      <path d="M20.87,7.43c0-1.37-0.71-1.11-4.19-1.11 c-4.49,0.2-6.11,0.16-6.98,1.25c-0.87,1.09-0.99,4.26-0.86,6.55c0.13,2.3,0,5.47,1.46,5.47c2.05,0,2.24-4.66,3.7-7.26 C15.31,10.01,20.87,9.19,20.87,7.43z" opacity="0.3" fill="#FFFFFF" enable-background="new "/>
      <path d="M25.08,36.58c-0.39-0.39-0.88-0.2-2.44,1.56 c-1.37,1.46-1.86,2.34-1.76,3.32c0.1,0.98,1.07,2.05,2.34,3.32c0.88,0.88,1.76,1.66,2.15,1.17c0.59-0.59-0.75-2.7-1.04-4.07 C23.64,39.25,25.57,37.07,25.08,36.58z" opacity="0.3" fill="#FFFFFF" enable-background="new "/>
      <path d="M56.08,102.78c0-0.74-0.7-1-2.75-0.98 c-1.79,0.02-3.17,0.13-3.81,0.84c-0.64,0.71-0.64,1.21-0.64,2.97c0,1.27,0.1,2.44,0.78,2.34c0.88,0,0.69-1.2,2.11-2.8 C53.19,103.55,56.08,103.52,56.08,102.78z" opacity="0.3" fill="#FFFFFF" enable-background="new "/>
      <path d="M99.15,6.43c0.19-0.71-0.3-1.01-2.63-0.99 c-2.14,0.01-3.32,0.26-3.9,1.05s-0.68,2.25-0.68,4c0,1.27,0.37,2.36,1.06,2.27c1.18,0.01,0.92-2.1,1.6-3.27 C95.86,7.15,98.96,7.15,99.15,6.43z" opacity="0.3" fill="#FFFFFF" enable-background="new "/>
      <path d="M112.33,26.15c-0.59,0-1.23,0.97-1.04,3.31 c0.2,1.95,0.4,2.94,1.18,3.53c0.78,0.59,1.72,0.67,3.48,0.67c1.27,0,2.44-0.1,2.34-0.78c0-0.88-2.35-1.29-3.51-2.26 S113.11,26.15,112.33,26.15z" opacity="0.3" fill="#FFFFFF" enable-background="new "/>
      <path d="M61.54,113.62c-0.48,0-0.68,2.39-0.68,3.58 c0,1.19,0.08,2.23,0.8,2.89c0.72,0.67,2.25,0.68,4,0.68c1.27,0,2.02,0.04,2.02-0.6c0-1.14-3.09-1.5-3.83-2.06 C62.67,117.2,62.9,113.62,61.54,113.62z" opacity="0.3" fill="#FFFFFF" enable-background="new "/>
    </g>
  </g>
</svg>

<svg viewBox="0 0 128 128" xmlns="http://www.w3.org/2000/svg">
  <defs/>
  <path d="M118.14,5.98 C112.83,5.98 98.14,5.98 92.71,5.98 C91.05,5.98 89.78,7.25 89.78,8.91 L89.78,14.77 C89.78,16.43 91.05,17.7 92.71,17.7 L99.3,17.7 C99.98,17.7 100.28,18.48 99.79,18.97 L81.54,37.31 C76.75,34.22 71.05,32.41 64.93,32.41 C58.28,32.41 52.14,34.54 47.12,38.13 L43.17,34.01 L49.25,27.93 C50.42,26.76 50.9,24.9 49.16,22.83 L34.97,25.8 L28.22,19.05 C27.73,18.56 28.12,17.78 28.71,17.78 L33.3,17.78 C34.96,17.78 36.23,16.51 36.23,14.85 L36.23,9 L6.93,17.79 L6.93,32.44 C6.93,34.1 8.2,35.37 9.86,35.37 L15.72,35.37 C17.38,35.37 18.65,34.1 18.65,32.44 L18.65,27.85 C18.65,27.17 19.43,26.87 19.92,27.36 L25.99,33.43 C25.99,33.43 19.63,39.04 19.36,39.42 C17.75,41.64 18.11,43.51 19.28,44.59 L23.85,49.16 C25.02,50.33 26.88,50.33 27.95,49.16 C28.3,48.81 34.75,42.36 34.88,42.23 L39.16,46.51 C36.09,51.29 34.29,56.96 34.29,63.07 C34.29,77.99 44.96,90.42 59.09,93.15 L59.08,93.18 L59.08,102.55 L50.29,102.55 C48.63,102.55 47.36,103.82 47.36,105.48 L47.36,110.34 C47.36,112 48.63,113.27 50.29,113.27 L59.08,113.27 L59.08,121.1 C59.08,122.76 60.35,124.03 62.01,124.03 L67.87,124.03 C69.53,124.03 70.8,122.76 70.8,121.1 L70.8,113.27 L79.59,113.27 C81.25,113.27 82.52,112 82.52,110.34 L82.52,105.48 C82.52,103.82 81.25,102.55 79.59,102.55 L70.8,102.55 L70.8,93.18 L70.79,93.15 C84.92,90.42 95.59,77.99 95.59,63.07 C95.59,56.44 93.48,50.3 89.89,45.29 L108.1,27.08 C108.59,26.59 109.37,26.98 109.37,27.57 L109.37,34.35 C109.37,36.01 110.64,37.28 112.3,37.28 L118.16,37.28 C119.82,37.28 121.09,36.01 121.09,34.35 L121.09,17.69 L121.09,8.91 C121.07,7.34 119.8,5.98 118.14,5.98 Z M65,81.57 C64.87,81.57 64.74,81.56 64.61,81.56 C64.27,81.55 63.93,81.53 63.59,81.51 C63.33,81.49 63.08,81.47 62.82,81.44 L62.82,81.45 C53.59,80.4 46.41,72.58 46.41,63.06 C46.41,52.83 54.7,44.55 64.92,44.55 C75.15,44.55 83.43,52.84 83.43,63.06 C83.44,73.26 75.19,81.53 65,81.57 Z" fill="#F57C00"/>
  <path d="M118.14,3.98 C112.83,3.98 98.14,3.98 92.71,3.98 C91.05,3.98 89.78,5.25 89.78,6.91 L89.78,12.77 C89.78,14.43 91.05,15.7 92.71,15.7 L99.3,15.7 C99.98,15.7 100.28,16.48 99.79,16.97 L81.54,35.31 C76.75,32.22 71.05,30.41 64.93,30.41 C58.28,30.41 52.14,32.54 47.12,36.13 L43.17,32.01 L48.74,26.44 C49.91,25.27 49.91,23.41 48.74,22.34 L44.64,18.24 C43.47,17.07 41.61,17.07 40.54,18.24 L34.97,23.81 L28.22,17.06 C27.73,16.57 28.12,15.79 28.71,15.79 L33.3,15.79 C34.96,15.79 36.23,14.52 36.23,12.86 L36.23,7 C36.23,5.34 34.96,4.07 33.3,4.07 C27.81,4.07 15.23,4.07 9.87,4.07 C8.2,4.07 6.93,5.34 6.93,7 L6.93,15.79 L6.93,30.44 C6.93,32.1 8.2,33.37 9.86,33.37 L15.72,33.37 C17.38,33.37 18.65,32.1 18.65,30.44 L18.65,25.85 C18.65,25.17 19.43,24.87 19.92,25.36 L26.58,32.02 C26.46,32.13 20.07,38.62 19.75,38.95 C18.58,40.12 18.58,41.98 19.75,43.05 L23.85,47.15 C25.02,48.32 26.88,48.32 27.95,47.15 C28.3,46.8 34.75,40.35 34.88,40.22 L39.16,44.5 C36.09,49.28 34.29,54.95 34.29,61.06 C34.29,75.98 44.96,88.41 59.09,91.14 L59.08,91.17 L59.08,100.54 L50.29,100.54 C48.63,100.54 47.36,101.81 47.36,103.47 L47.36,108.33 C47.36,109.99 48.63,111.26 50.29,111.26 L59.08,111.26 L59.08,119.09 C59.08,120.75 60.35,122.02 62.01,122.02 L67.87,122.02 C69.53,122.02 70.8,120.75 70.8,119.09 L70.8,111.26 L79.59,111.26 C81.25,111.26 82.52,109.99 82.52,108.33 L82.52,103.47 C82.52,101.81 81.25,100.54 79.59,100.54 L70.8,100.54 L70.8,91.17 L70.79,91.14 C84.92,88.41 95.59,75.98 95.59,61.06 C95.59,54.43 93.48,48.29 89.89,43.28 L108.1,25.07 C108.59,24.58 109.37,24.97 109.37,25.56 L109.37,32.34 C109.37,34 110.64,35.27 112.3,35.27 L118.16,35.27 C119.82,35.27 121.09,34 121.09,32.34 L121.09,15.69 L121.09,6.91 C121.07,5.34 119.8,3.98 118.14,3.98 Z M65,79.57 C64.87,79.57 64.74,79.56 64.61,79.56 C64.27,79.55 63.93,79.53 63.59,79.51 C63.33,79.49 63.08,79.47 62.82,79.44 L62.82,79.45 C53.59,78.4 46.41,70.58 46.41,61.06 C46.41,50.83 54.7,42.55 64.92,42.55 C75.15,42.55 83.43,50.84 83.43,61.06 C83.44,71.26 75.19,79.53 65,79.57 Z" fill="#FFA726"/>
  <path d="M41.68,45.64 C45.05,40.04 50.63,35.85 55.87,34.65 C59.41,33.84 61.24,33.83 61.69,35.57 C62.14,37.31 57.97,38.42 57.12,38.78 C51.51,41.04 48.19,43.87 45.59,48.31 C44.46,50.25 42.39,56.9 39.96,55.8 C38.45,55.31 38.47,51.35 41.68,45.64 Z" fill="#FFFFFF" opacity="0.3"/>
  <path d="M20.87,7.43 C20.87,6.06 20.16,6.32 16.68,6.32 C12.19,6.52 10.57,6.48 9.7,7.57 C8.83,8.66 8.71,11.83 8.84,14.12 C8.97,16.42 8.84,19.59 10.3,19.59 C12.35,19.59 12.54,14.93 14,12.33 C15.31,10.01 20.87,9.19 20.87,7.43 Z" fill="#FFFFFF" opacity="0.3"/>
  <path d="M25.08,36.58 C24.69,36.19 24.2,36.38 22.64,38.14 C21.27,39.6 20.78,40.48 20.88,41.46 C20.98,42.44 21.95,43.51 23.22,44.78 C24.1,45.66 24.98,46.44 25.37,45.95 C25.96,45.36 24.62,43.25 24.33,41.88 C23.64,39.25 25.57,37.07 25.08,36.58 Z" fill="#FFFFFF" opacity="0.3"/>
  <path d="M56.08,102.78 C56.08,102.04 55.38,101.78 53.33,101.8 C51.54,101.82 50.16,101.93 49.52,102.64 C48.88,103.35 48.88,103.85 48.88,105.61 C48.88,106.88 48.98,108.05 49.66,107.95 C50.54,107.95 50.35,106.75 51.77,105.15 C53.19,103.55 56.08,103.52 56.08,102.78 Z" fill="#FFFFFF" opacity="0.3"/>
  <path d="M99.15,6.43 C99.34,5.72 98.85,5.42 96.52,5.44 C94.38,5.45 93.2,5.7 92.62,6.49 C92.04,7.28 91.94,8.74 91.94,10.49 C91.94,11.76 92.31,12.85 93,12.76 C94.18,12.77 93.92,10.66 94.6,9.49 C95.86,7.15 98.96,7.15 99.15,6.43 Z" fill="#FFFFFF" opacity="0.3"/>
  <path d="M112.33,26.15 C111.74,26.15 111.1,27.12 111.29,29.46 C111.49,31.41 111.69,32.4 112.47,32.99 C113.25,33.58 114.19,33.66 115.95,33.66 C117.22,33.66 118.39,33.56 118.29,32.88 C118.29,32 115.94,31.59 114.78,30.62 C113.62,29.65 113.11,26.15 112.33,26.15 Z" fill="#FFFFFF" opacity="0.3"/>
  <path d="M61.54,113.62 C61.06,113.62 60.86,116.01 60.86,117.2 C60.86,118.39 60.94,119.43 61.66,120.09 C62.38,120.76 63.91,120.77 65.66,120.77 C66.93,120.77 67.68,120.81 67.68,120.17 C67.68,119.03 64.59,118.67 63.85,118.11 C62.67,117.2 62.9,113.62 61.54,113.62 Z" fill="#FFFFFF" opacity="0.3"/>
</svg>
